svgs/thin/bars-staggered.svg

<svg xmlns="http://www.w3.org/2000/svg" viewBox="0 0 512 512"><!--! Font Awesome Pro 6.1.1 by @fontawesome - https://fontawesome.com License - https://fontawesome.com/license (Commercial License) Copyright 2022 Fonticons, Inc. --><path d="M0 88C0 83.58 3.582 80 8 80H440C444.4 80 448 83.58 448 88C448 92.42 444.4 96 440 96H8C3.582 96 0 92.42 0 88zM64 248C64 243.6 67.58 240 72 240H504C508.4 240 512 243.6 512 248C512 252.4 508.4 256 504 256H72C67.58 256 64 252.4 64 248zM440 416H8C3.582 416 0 412.4 0 408C0 403.6 3.582 400 8 400H440C444.4 400 448 403.6 448 408C448 412.4 444.4 416 440 416z"/></svg>

<svg xmlns="http://www.w3.org/2000/svg" viewBox="0 0 512 512"><!--! Font Awesome Pro 6.4.2 by @fontawesome - https://fontawesome.com License - https://fontawesome.com/license (Commercial License) Copyright 2023 Fonticons, Inc. --><path d="M0 88c0-4.4 3.6-8 8-8H440c4.4 0 8 3.6 8 8s-3.6 8-8 8H8c-4.4 0-8-3.6-8-8zM64 248c0-4.4 3.6-8 8-8H504c4.4 0 8 3.6 8 8s-3.6 8-8 8H72c-4.4 0-8-3.6-8-8zM448 408c0 4.4-3.6 8-8 8H8c-4.4 0-8-3.6-8-8s3.6-8 8-8H440c4.4 0 8 3.6 8 8z"/></svg>
